svg/Filled/video-camera-off_filled.svg

<svg viewBox="0 0 24 24" xmlns="http://www.w3.org/2000/svg" width="24" height="24"><path d="M21.46 1.26a.9.9 0 0 1 1.28 1.28l-20.2 20.2-.07.06a.9.9 0 0 1-1.27-1.27l.06-.07zM15.55 15a3.9 3.9 0 0 1-3.9 3.9H8.92l6.63-6.63zm-3.9-9.9c.95 0 1.83.35 2.5.92L2.3 17.9A4 4 0 0 1 .99 15V9.02a3.9 3.9 0 0 1 3.9-3.9zm9.61 1.84A1.4 1.4 0 0 1 23 8.29v7.4a1.4 1.4 0 0 1-1.75 1.35L21.1 17l-3.38-1.36a1.9 1.9 0 0 1-1.19-1.77V11.3l4.12-4.12.45-.18z"/></svg>

<svg viewBox="0 0 24 24" xmlns="http://www.w3.org/2000/svg" width="24" height="24"><path d="M21.46 1.26A.9 .9 0 0 1 22.74 2.54L2.47 22.8A.9 .9 0 0 1 1.2 21.53L1.26 21.46ZM15.55 15a3.9 3.9 0 0 1-3.9 3.9H8.92l6.63-6.63zm-3.9-9.9c.95 0 1.83.35 2.5.92L2.3 17.9A4 4 0 0 1 .99 15V9.02a3.9 3.9 0 0 1 3.9-3.9zM21.26 6.94A1.4 1.4 0 0 1 23 8.29L23 15.69A1.4 1.4 0 0 1 21.25 17.04L17.72 15.64A1.9 1.9 0 0 1 16.53 13.87L16.53 11.3L20.65 7.18L21.1 7Z"/></svg>
